svg/24/logo-kick.svg

<svg width="24" height="24" viewBox="0 0 24 24" fill="currentColor" xmlns="http://www.w3.org/2000/svg"><path fill-rule="evenodd" clip-rule="evenodd" d="M4 3H10.0001V6.99996H12.0001V4.99998H14.0001V3H20V8.99995H18V10.9999H16.0001V12.9999H18V14.9999H20V21H14.0001V19H12.0001V17H10.0001V21H4V3Z"/></svg>

<svg xmlns="http://www.w3.org/2000/svg" width="24" height="24" fill="currentColor" viewBox="0 0 24 24">
  <path fill-rule="evenodd" d="M4 3h6v4h2V5h2V3h6v6h-2v2h-2v2h2v2h2v6h-6v-2h-2v-2h-2v4H4V3Z" clip-rule="evenodd"/>
</svg>
